src/devices/16/bluetooth.svg

<svg width="16" height="16" version="1.1">
 <defs>
  <style id="current-color-scheme" type="text/css">.ColorScheme-Text { color:#363636; } .ColorScheme-Highlight { color:#5294e2; }</style>
 </defs>
 <path d="m7.9981 2e-5v7.041l-3.293-3.293-2e-3 2e-3c-0.35575-0.35595-0.99605-0.99609-0.99605-0.99609l-0.70703 0.70703 4.5449 4.541-4.5449 4.541 0.70703 0.70703s0.64035-0.64009 0.99609-0.99609h2e-3l3.2949-3.293v7.0391h1l4-4-4-4 4-4-4-4zm1.002 1.416 2.5859 2.5859-2.5859 2.5859zm0 8 2.5859 2.5859-2.5859 2.5859z" style="fill:currentColor" class="ColorScheme-Text"/>
</svg>

<svg width="16" height="16">
    <defs>
        <style id="current-color-scheme" type="text/css">
            .ColorScheme-Highlight{color:#a0b6cb}
        </style>
    </defs>
    <path d="M7.998 0v7.041L4.705 3.748l-.002.002-.996-.996L3 3.46l4.545 4.541L3 12.543l.707.707.996-.996h.002L8 8.96V16h1l4-4-4-4 4-4-4-4zM9 1.416l2.586 2.586L9 6.588zm0 8 2.586 2.586L9 14.588z" style="fill:currentColor;color:#050505;opacity:.7"/>
</svg>
